svg/light_switch.svg

<svg xmlns="http://www.w3.org/2000/svg" width="24" height="24" viewBox="0 0 24 24"><title>light_switch</title><path d="M18.41 1.59A2 2 0 0 0 17 1H7a2 2 0 0 0-2 2v18a2 2 0 0 0 2 2h10a2 2 0 0 0 2-2V3a2 2 0 0 0-.59-1.41zM17 21H7V3h10z"/><path d="M15 6H9v12h6zm-2 10h-2v-3h2zm0-5h-2V8h2z"/></svg>

<svg xmlns="http://www.w3.org/2000/svg" width="24" height="24" viewBox="0 0 24 24"><title>light_switch</title><path d="M18.41,1.59A2,2,0,0,0,17,1H7A2,2,0,0,0,5,3V21a2,2,0,0,0,2,2H17a2,2,0,0,0,2-2V3A2,2,0,0,0,18.41,1.59ZM17,21H7V3H17Z" /><path d="M15,6H9V18h6ZM13,16H11V13h2Zm0-5H11V8h2Z" /></svg>
